X:1
T:Port Lavaca, 88.86.88.86.88.86
T:Port Lavaca, 88.86.88.86.88.86
T:J. S. Boyd, 1881
T:Public Domain Courtesy of the Cyber Hymnal™
C:J. S. Boyd, 1881
Z:Public Domain
Z:Courtesy of the Cyber Hymnal™
%%score ( 1 2 ) ( 3 4 )
L:1/8
Q:1/4=105
M:4/4
K:G
V:1 treble 
V:2 treble 
V:3 bass 
V:4 bass 
V:1
 [DB]2 [B,G]>[DF] [CE]2 [EG]2 | [CE]2 [G,B,]2 [B,D]4 | [B,D]2 [DG]>[DA] [DB]2 [Dd]2 | %3
 [DA]2 [Dc]2 ([GB]2 [FA]2) | [GB]2 [DG]>[DF] [CE]2 [EG]2 | [B,D]2 [G,B,]2 [B,D]4 | %6
 [DF]2 [FA]>[Fc] [GB]2 [DA]2 | [DG]6 z2 | [FA]2 [DF]>[EG] [FA]2 [FA]2 | [GB]2 [GB]2 [FA]4 | %10
 [FA]2 [E^c]>[Fd] [Ge]2 [Ec]2 | [Fd]2 ([A^c][GB]) [FA]4 | [FA]2 [DF]>[EG] [FA]2 [Fd]2 | %13
 [DB]2 (Bc) [Dd]4 | [E^c]2 [Ec]>[Ec] [DB]2 [Ec]2 | ([Fd]4 [D=c]4) | [DB]2 [B,G]>[DF] [CE]2 [EG]2 | %17
 [CE]2 [G,B,]2 [B,D]4 | [B,D]2 [DG]>[DA] [DB]2 [Dd]2 | [DA]2 [Dc]2 ([GB]2 [FA]2) | %20
 [GB]2 [DG]>[DF] [CE]2 [EG]2 | [B,D]2 [G,B,]2 [B,D]4 | [DF]2 [FA]>[Fc] [GB]2 [DA]2 | [DG]8 |] %24
V:2
 x8 | x8 | x8 | x8 | x8 | x8 | x8 | x8 | x8 | x8 | x8 | x8 | x8 | x2 D2 x4 | x8 | x8 | x8 | x8 | %18
 x8 | x8 | x8 | x8 | x8 | x8 |] %24
V:3
 G,2 G,>G, G,2 G,2 | G,2 G,2 G,4 | [G,,G,]2 [B,,G,]>[D,F,] G,2 [B,,G,]2 | [D,F,]2 [D,A,]2 [D,D]4 | %4
 [G,D]2 [G,B,]>[G,A,] G,2 G,2 | G,2 G,2 [G,,G,]4 | [D,A,]2 [D,D]>[D,D] [D,D]2 [D,C]2 | %7
 [G,,B,]6 z2 | [D,A,]2 [D,A,]>[D,A,] [D,A,]2 [D,D]2 | [G,D]2 [G,D]2 [D,D]4 | [A,D]2 A,>A, A,2 A,2 | %11
 [D,A,]2 [D,A,]2 [D,A,]4 | [D,A,]2 [D,A,]>[D,A,] [D,A,]2 [D,A,]2 | G,2 (G,A,) [G,B,]4 | %14
 A,2 A,>A, A,2 A,2 | [D,A,]8 | G,2 G,>G, G,2 G,2 | G,2 G,2 G,4 | %18
 [G,,G,]2 [B,,G,]>[D,F,] G,2 [B,,G,]2 | [D,F,]2 [D,A,]2 [D,D]4 | [G,D]2 [G,B,]>[G,A,] G,2 G,2 | %21
 G,2 G,2 [G,,G,]4 | [D,A,]2 [D,D]>[D,D] [D,D]2 [D,C]2 | [G,,B,]8 |] %24
V:4
 G,2 G,>G, G,2 G,2 | G,2 G,2 G,4 | x4 G,2 x2 | x8 | x4 G,2 G,2 | G,2 G,2 x4 | x8 | x8 | x8 | x8 | %10
 x2 A,>A, A,2 A,2 | x8 | x8 | G,2 G,2 x4 | A,2 A,>A, A,2 A,2 | x8 | G,2 G,>G, G,2 G,2 | %17
 G,2 G,2 G,4 | x4 G,2 x2 | x8 | x4 G,2 G,2 | G,2 G,2 x4 | x8 | x8 |] %24

